icon-themes/sifr_svg/cmd/lc_checkbox.svg

<svg viewBox="0 0 24 24" xmlns="http://www.w3.org/2000/svg"><path d="m4 3a1.0001 1.0001 0 0 0 -1 1v16a1.0001 1.0001 0 0 0 1 1h16a1.0001 1.0001 0 0 0 1-1v-16a1.0001 1.0001 0 0 0 -1-1zm1 2h14v14h-14zm11 2-6 6-2-2-2 2 4 4 8-8z" fill="#555753"/></svg>

<svg xmlns="http://www.w3.org/2000/svg" viewBox="0 0 24 24">
 <path
     style="fill:#555753"
     d="M 4 3 A 1.0001 1.0001 0 0 0 3 4 L 3 20 A 1.0001 1.0001 0 0 0 4 21 L 20 21 A 1.0001 1.0001 0 0 0 21 20 L 21 4 A 1.0001 1.0001 0 0 0 20 3 L 4 3 z M 5 5 L 19 5 L 19 19 L 5 19 L 5 5 z M 16 7 L 10 13 L 8 11 L 6 13 L 10 17 L 18 9 L 16 7 z "
     />
 </svg>
